X:0185
T:Lesslie's March.
T:Leslie's March
T:Blue Bonnets over the Border
N:dates from Cromwell's time (c.1650)
M:6/8
L:1/8
Q:3/8=104
I: :: :: ::
Z:Jack Campin * www.campin.me.uk * 2009
K:D
d3  d3 |dcB ABc|dcB AGF|GAF TE2D |
e3  e3 |fed eag|fed BAB|def Te2d:|
fed eAA|fed eAA|gfe fBB|gfe  fBB |
fed eAA|fed eag|fed BAB|def Te2d:|
dfa dfa|dfa agf|egb egb|egb  bge |
dfa dfa|dfa aeg|fed BAB|def  e2d:|

